X:9
T:Red Haired Boy (Hornpipe), The
I:titlefont Times-Roman 24
I:partsfont Times-Roman 20
M:4/4
L:1/8
R:hornpipe
O:Trad. (22.1.2014/NS)
K:Amix
|: AG |"A"E2A2 ABcd|efec "D"d2 cd|"A"e2A2 ABcA|"G"BGEF G2 GF|
"A"E2A2 ABcd|efec "D"d2 cd|"A"eaab afed|c2"E"A2 "A"A2 :|
%%vskip
|: ef| "G"gf ga gfef|gfec "D"d2 cd|"A"e2 A2 ABcA|"G"BGEF G2 GF|
"A"E2A2 ABcd|efec "D"d2 cd|"A"eaab afed|c2"E"A2 "A"A2 :|
%%vskip
P:King Of The Fairies
K:Edor
|:B,2|"Em"EDEF GFGA|B2B2 G2GA|B2E2 EFGE|"D"FGFE D2B,2|
"Em"EDEF GFGA|BAGB "D"d3c|"C"B2E2 "D"GFED|"Em"E6 :|
|:B2|"Em"e2e2 Bdef|gagf efed|e2B2 BABc|"Hm"dedc BcdB|
"Em"e2B2 Bdef|gagf efed|"C"Bdeg "D"fedf|"Em"e6 ef|
"G"g3e "D"f3d|"Hm"edBc d3e|"D"dBAF GABc|"A"dBAF GFED|
"Em"B,2E2 EFGA|B2e2 edef|"C"e2B2 "D"BAGF|"Em"E6:|
%%vskip
W:Red Haired Boy
W:||: AG | E2A2 ABcd | efec d2 cd | e2A2 ABcA | BGEF G2 GF |
W:    E2A2 ABcd | efec d2 cd | eaab afed | c2A2 A2 :|
W:||: ef | gf ga gfef | gfec d2 cd | e2 A2 ABcA | BGEF G2 GF |
W:    E2A2 ABcd | efec d2 cd | eaab afed | c2A2 A2 :|
%%vskip
W:King Of The Fairies
%%vskip
W:||: B,2 | EDEF GFGA | B2B2 G2GA | B2E2 EFGE | FGFE D2B,2 |
W:EDEF GFGA | BAGB d3c | B2E2 GFED | E6 :|
W:||: B2 | e2e2 Bdef | gagf efed | e2B2 BABc | dedc BcdB |
W:e2B2 Bdef | gagf efed | Bdeg fedf | e6 ef |
W:g3e f3d|  edBc d3e | dBAF GABc | dBAF GFED |
W:B,2E2 EFGA | B2e2 edef | e2B2 BAGF | E6 :|

